X:100
M:2/4
L:1/8
Q:1/4=140
K:A
|:A|ceae|Tf2 ee|dcTBA|(G/A/B/c/) BB|ceae|Tf2 ed|cBTAG|T(A/G/A/B/) A:|

